svg/u1f64d.svg

<svg viewBox="0 0 128 128" xmlns="http://www.w3.org/2000/svg">
  <g id="shirt">
    <linearGradient id="SVGID_1_" gradientTransform="matrix(1 0 0 -1 0 128)" gradientUnits="userSpaceOnUse" x1="64" x2="64" y1="40" y2="5.6602">
      <stop offset="0" stop-color="#F78C1F"/>
      <stop offset="0.482" stop-color="#F47F12"/>
      <stop offset="1" stop-color="#EF6C00"/>
    </linearGradient>
    <path d="M80.74,88.51c-2.85-0.54-30.62-0.54-33.47,0C29.22,91.94,16,100.9,16,117.88V124h1.5H19h90 h1.5h1.5v-6.12C112,100.9,98.78,91.94,80.74,88.51z" fill="url(#SVGID_1_)"/>
  </g>
  <g id="hairGroup">
    <path id="hair_3_" d="M99.02,86.36c-1.25-2.23,0.34-4.5,3.06-7.3c4.31-4.46,9-14.78,4.64-25.26 c0.03-0.06-0.86-1.83-0.83-1.88l-1.79-0.09c-0.57-0.08-20.26-0.12-39.97-0.12c-19.71,0-39.4,0.04-39.97,0.12 c0,0-2.65,1.91-2.63,1.97c-4.35,10.49,0.33,20.81,4.64,25.26c2.71,2.81,4.3,5.07,3.06,7.3c-1.21,2.17-4.81,2.48-4.81,2.48 s0.83,2.22,2.83,3.41c1.85,1.1,4.13,1.36,5.7,1.4c0,0,6.15,8.35,22.23,8.35l8.95,0l8.95,0c16.08,0,22.23-8.35,22.23-8.35 c1.57-0.04,3.85-0.3,5.7-1.4c2-1.19,2.83-3.41,2.83-3.41S100.23,88.52,99.02,86.36z" fill="#543930"/>
    <g id="hairHighlights_1_">
      <radialGradient id="SVGID_2_" cx="99.519" cy="37.8871" gradientTransform="matrix(1 0 0 0.4818 -20.817 70.3608)" gradientUnits="userSpaceOnUse" r="23.419">
        <stop offset="0.7275" stop-color="#6D4C41" stop-opacity="0"/>
        <stop offset="1" stop-color="#6D4C41"/>
      </radialGradient>
      <path d="M64.11,102v-9.26l28.57-2.22l2.6,3.13c0,0-6.15,8.35-22.23,8.35L64.11,102z" fill="url(#SVGID_2_)"/>
      <radialGradient id="SVGID_3_" cx="76.4537" cy="41.369" gradientTransform="matrix(-0.9057 0.4157 -0.3144 -0.659 184.0208 80.681)" gradientUnits="userSpaceOnUse" r="6.9209">
        <stop offset="0.6628" stop-color="#6D4C41"/>
        <stop offset="1" stop-color="#6D4C41" stop-opacity="0"/>
      </radialGradient>
      <path d="M95.22,89.61c-4.28-6.38,5.21-8.75,5.21-8.75s0.01,0.01,0.01,0.01 c-1.65,2.01-2.4,3.77-1.43,5.5c1.21,2.17,4.81,2.48,4.81,2.48S98.91,93.12,95.22,89.61z" fill="url(#SVGID_3_)"/>
      <radialGradient id="SVGID_4_" cx="94.3901" cy="60.9477" gradientTransform="matrix(-0.0746 -0.9781 0.8311 -0.061 40.2218 162.038)" gradientUnits="userSpaceOnUse" r="30.3992">
        <stop offset="0.7247" stop-color="#6D4C41" stop-opacity="0"/>
        <stop offset="1" stop-color="#6D4C41"/>
      </radialGradient>
      <path d="M106.74,53.79c4.25,10.16-0.22,20.61-4.41,25.02c-0.57,0.61-3.01,2.95-3.57,4.83 c0,0-9.54-13.05-12.39-20.72c-0.57-1.55-1.1-3.14-1.17-4.79c-0.05-1.23,0.14-2.7,0.87-3.75c0.89-1.29,20.16-1.67,20.16-1.67 C106.23,52.72,106.74,53.79,106.74,53.79z" fill="url(#SVGID_4_)"/>
      <radialGradient id="SVGID_5_" cx="44.4293" cy="60.9477" gradientTransform="matrix(0.0746 -0.9781 -0.8311 -0.061 91.7665 113.1724)" gradientUnits="userSpaceOnUse" r="30.3992">
        <stop offset="0.7247" stop-color="#6D4C41" stop-opacity="0"/>
        <stop offset="1" stop-color="#6D4C41"/>
      </radialGradient>
      <path d="M21.52,53.79c-4.25,10.16,0.22,20.61,4.41,25.02c0.58,0.61,3.01,2.95,3.57,4.83 c0,0,9.54-13.05,12.39-20.72c0.58-1.55,1.1-3.14,1.17-4.79c0.05-1.23-0.14-2.7-0.87-3.75c-0.89-1.29-1.93-0.94-3.44-0.94 c-2.88,0-15.49-0.72-16.47-0.72C22.29,52.72,21.52,53.79,21.52,53.79z" fill="url(#SVGID_5_)"/>
      <radialGradient id="SVGID_6_" cx="49.5582" cy="37.8871" gradientTransform="matrix(-1 0 0 0.4818 99.1164 70.3608)" gradientUnits="userSpaceOnUse" r="23.419">
        <stop offset="0.7275" stop-color="#6D4C41" stop-opacity="0"/>
        <stop offset="1" stop-color="#6D4C41"/>
      </radialGradient>
      <path d="M64.15,102v-9.26l-28.57-2.22l-2.6,3.13c0,0,6.15,8.35,22.23,8.35L64.15,102z" fill="url(#SVGID_6_)"/>
      <radialGradient id="SVGID_7_" cx="26.493" cy="41.369" gradientTransform="matrix(0.9057 0.4157 0.3144 -0.659 -10.5089 101.449)" gradientUnits="userSpaceOnUse" r="6.9209">
        <stop offset="0.6628" stop-color="#6D4C41"/>
        <stop offset="1" stop-color="#6D4C41" stop-opacity="0"/>
      </radialGradient>
      <path d="M33.04,89.61c4.28-6.38-5.21-8.75-5.21-8.75s-0.01,0.01-0.01,0.01 c1.65,2.01,2.4,3.77,1.43,5.5c-1.21,2.17-4.81,2.48-4.81,2.48S29.35,93.12,33.04,89.61z" fill="url(#SVGID_7_)"/>
    </g>
  </g>
  <g id="neck">
    <path d="M54.92,93.85v9.98c0,4.51,4.33,8.17,9.08,8.17s9.08-3.66,9.08-8.17v-9.98H54.92z" fill="#E59600"/>
  </g>
  <g id="ears">
    <path d="M91.33,58.43H36.67c-5.89,0-10.71,5.14-10.71,11.41s4.82,11.41,10.71,11.41h54.65 c5.89,0,10.71-5.14,10.71-11.41C102.04,63.57,97.22,58.43,91.33,58.43z" fill="#E59600"/>
  </g>
  <path id="head" d="M64,19.07L64,19.07L64,19.07c-17.4,0-33.52,18.61-33.52,45.39 c0,26.64,16.61,39.81,33.52,39.81S97.52,91.1,97.52,64.46C97.52,37.68,81.4,19.07,64,19.07z" fill="#FFCA28"/>
  <path id="nose" d="M67.81,78.06c-0.11-0.04-0.21-0.07-0.32-0.08H60.5c-0.11,0.01-0.21,0.04-0.32,0.08 c-0.63,0.26-0.98,0.91-0.68,1.61c0.3,0.7,1.69,2.66,4.49,2.66c2.8,0,4.2-1.96,4.49-2.66C68.79,78.97,68.45,78.31,67.81,78.06z" fill="#E59600"/>
  <path id="mouth" d="M56.67,91.77c4.63-1.45,10.27-1.38,14.66,0c0.8,0.25,1.2-0.57,0.65-1.41 C71.2,89.18,68.31,86.9,64,86.9s-7.2,2.28-7.98,3.46C55.47,91.21,55.87,92.03,56.67,91.77z" fill="#795548"/>
  <g id="eyes">
    <path d="M43.33,68.26c0.01-0.52,0.1-1.02,0.22-1.5c0.97-0.13,2.01-0.33,3.15-0.67 c1.68-0.51,2.94-1.34,3.91-2.24c1.07,1.01,1.76,2.62,1.72,4.43c-0.06,3.06-2.13,5.54-4.62,5.53 C45.23,73.81,43.27,71.32,43.33,68.26z" fill="#404040"/>
    <path d="M84.67,68.26c-0.01-0.52-0.1-1.02-0.22-1.5c-0.97-0.13-2-0.33-3.15-0.67 c-1.68-0.51-2.94-1.34-3.91-2.24c-1.07,1.01-1.76,2.62-1.71,4.43c0.07,3.06,2.13,5.54,4.62,5.53 C82.77,73.81,84.73,71.32,84.67,68.26z" fill="#404040"/>
  </g>
  <g id="eyebrows">
    <path d="M55.29,58.42c-1.19-1.04-3.75-2.4-8.12-1.63c-4.37,0.77-6.31,2.93-7.07,4.31 c-0.34,0.61-0.12,1.21,0.24,1.53c0.34,0.3,1.21,0.48,2.06,0.03c0.85-0.45,2.47-1.61,5.42-2.15c2.96-0.5,4.87,0.04,5.83,0.17 c0.95,0.13,1.71-0.34,1.93-0.73C55.81,59.52,55.81,58.88,55.29,58.42z" fill="#6D4C41"/>
    <path d="M87.9,61.13c-0.76-1.38-2.7-3.54-7.07-4.31s-6.93,0.59-8.12,1.63c-0.53,0.46-0.52,1.1-0.29,1.52 c0.22,0.4,0.97,0.86,1.93,0.73c0.95-0.13,2.87-0.67,5.82-0.17c2.95,0.54,4.56,1.71,5.42,2.15s1.72,0.27,2.06-0.03 C88.01,62.33,88.23,61.74,87.9,61.13z" fill="#6D4C41"/>
  </g>
  <g id="hairGroup_1_">
    <path id="hair" d="M104.19,32.67c-2.44-3.62-7.91-8.48-12.82-8.8c-0.79-4.63-5.84-8.55-10.73-10.07 c-13.23-4.11-21.84,0.5-26.47,2.97c-0.96,0.51-7.17,3.89-11.51,1.47c-2.72-1.52-2.67-5.63-2.67-5.63s-8.52,3.18-5.61,12.06 c-2.93,0.12-6.77,1.33-8.8,5.36c-2.42,4.8-1.56,8.82-0.86,10.74c-2.52,2.1-5.69,6.56-3.52,12.36c1.64,4.36,8.17,6.37,8.17,6.37 c-0.46,7.85,1.03,12.69,1.82,14.65c0.14,0.34,0.63,0.31,0.72-0.04c0.99-3.89,4.36-17.45,4.03-19.82c0,0,11.35-2.21,22.17-10.02 c2.2-1.59,4.59-2.95,7.13-3.94c13.59-5.31,16.43,3.74,16.43,3.74s9.42-1.77,12.26,11.06c1.07,4.81,1.79,12.5,2.4,17.89 c0.04,0.38,0.57,0.46,0.72,0.11c0.95-2.14,2.85-6.38,3.3-10.7c0.16-1.52,4.34-3.53,6.14-10.06 C108.91,43.66,105.96,35.29,104.19,32.67z" fill="#543930"/>
    <g id="hairHighlights">
      <radialGradient id="SVGID_8_" cx="82.1379" cy="76.9835" gradientTransform="matrix(0.3076 0.9333 0.706 -0.2238 2.5203 -9.1583)" gradientUnits="userSpaceOnUse" r="35.6328">
        <stop offset="0.6985" stop-color="#6D4C41" stop-opacity="0"/>
        <stop offset="1" stop-color="#6D4C41"/>
      </radialGradient>
      <path d="M100.34,62.48c0.16-1.52,4.34-3.53,6.14-10.06c0.19-0.69,0.35-1.4,0.5-2.11 c1.46-7.94-1.16-15.22-2.79-17.63c-2.26-3.35-7.1-7.74-11.69-8.64c-0.4-0.05-0.79-0.1-1.16-0.12c0,0,0.33,2.1-0.54,3.79 c-1.12,2.18-3.41,2.69-3.41,2.69C99.36,42.14,98.5,51.97,100.34,62.48z" fill="url(#SVGID_8_)"/>
      <radialGradient id="SVGID_9_" cx="47.3991" cy="115.837" gradientTransform="matrix(0.8813 0.4635 0.5603 -1.0249 -59.2761 108.9142)" gradientUnits="userSpaceOnUse" r="9.3426">
        <stop offset="0.58" stop-color="#6D4C41"/>
        <stop offset="1" stop-color="#6D4C41" stop-opacity="0"/>
      </radialGradient>
      <path d="M57.07,15.3c-1.1,0.52-2.06,1.04-2.9,1.48c-0.96,0.51-7.17,3.89-11.51,1.47 c-2.67-1.49-2.67-5.47-2.67-5.61c-1.23,1.54-4.95,12.54,5.93,13.27c4.69,0.32,7.58-3.69,9.3-7.09 C55.84,17.57,56.81,15.78,57.07,15.3z" fill="url(#SVGID_9_)"/>
      <radialGradient id="SVGID_10_" cx="166.9671" cy="66.1913" gradientTransform="matrix(-0.9378 -0.3868 -0.2182 0.5183 239.3048 59.0913)" gradientUnits="userSpaceOnUse" r="28.7211">
        <stop offset="0.6985" stop-color="#6D4C41" stop-opacity="0"/>
        <stop offset="1" stop-color="#6D4C41"/>
      </radialGradient>
      <path d="M79.28,13.41c7.32,1.94,10.89,5.6,12.08,10.48c0.35,1.43,0.77,14.79-25.23-0.39 c-9.67-5.65-7.03-9.18-5.9-9.59C64.65,12.34,71.07,11.23,79.28,13.41z" fill="url(#SVGID_10_)"/>
      <radialGradient id="SVGID_11_" cx="43.6479" cy="107.3131" gradientTransform="matrix(1 0 0 -1.1998 0 149.2776)" gradientUnits="userSpaceOnUse" r="8.5755">
        <stop offset="0.7016" stop-color="#6D4C41" stop-opacity="0"/>
        <stop offset="1" stop-color="#6D4C41"/>
      </radialGradient>
      <path d="M39.96,12.63c-0.01,0.01-0.03,0.01-0.06,0.02c0,0,0,0-0.01,0 c-0.93,0.39-8.24,3.7-5.51,12.02l7.78,1.23c-6.88-6.85-2.17-13.29-2.17-13.29S39.97,12.62,39.96,12.63z" fill="url(#SVGID_11_)"/>
      <radialGradient id="SVGID_12_" cx="42.468" cy="92.1763" gradientTransform="matrix(-0.9657 -0.2549 -0.2432 0.8863 105.8962 -35.5018)" gradientUnits="userSpaceOnUse" r="16.0834">
        <stop offset="0.6605" stop-color="#6D4C41" stop-opacity="0"/>
        <stop offset="1" stop-color="#6D4C41"/>
      </radialGradient>
      <path d="M39.19,25.44l-4.81-0.76c-0.19,0-0.83,0.06-1.18,0.1c-2.71,0.37-5.9,1.74-7.63,5.26 c-1.86,3.78-1.81,7.04-1.3,9.2c0.15,0.73,0.45,1.54,0.45,1.54s2.38-2.21,8.05-2.36L39.19,25.44z" fill="url(#SVGID_12_)"/>
      <radialGradient id="SVGID_13_" cx="38.6525" cy="76.6464" gradientTransform="matrix(0.9907 0.1337 0.1915 -1.3654 -14.3152 150.0874)" gradientUnits="userSpaceOnUse" r="16.8856">
        <stop offset="0.5981" stop-color="#6D4C41" stop-opacity="0"/>
        <stop offset="1" stop-color="#6D4C41"/>
      </radialGradient>
      <path d="M24.49,40.98c-2.37,2.06-5.56,6.66-3.21,12.37c1.77,4.3,8.09,6.17,8.09,6.17 c0,0.02,1.26,0.39,1.91,0.39l1.48-21.48c-3.03,0-5.94,0.89-7.82,2.17C24.97,40.64,24.48,40.95,24.49,40.98z" fill="url(#SVGID_13_)"/>
    </g>
  </g>
</svg>

<svg viewBox="0 0 128 128" xmlns="http://www.w3.org/2000/svg">
  <defs>
    <linearGradient id="SVGID_1_" gradientTransform="matrix(1 0 0 -1 0 0)" gradientUnits="userSpaceOnUse" x1="64" x2="64" y1="-88" y2="-122.3398">
      <stop offset="0" stop-color="#F78C1F"/>
      <stop offset="0.482" stop-color="#F47F12"/>
      <stop offset="1" stop-color="#EF6C00"/>
    </linearGradient>
    <radialGradient id="SVGID_2_" cx="78.702" cy="183.92446" gradientTransform="matrix(1 0 0 0.4818 0 0)" gradientUnits="userSpaceOnUse" r="23.419">
      <stop offset="0.7275" stop-color="#6D4C41" stop-opacity="0"/>
      <stop offset="1" stop-color="#6D4C41"/>
    </radialGradient>
    <radialGradient id="SVGID_3_" cx="-55.363065" cy="-164.211014" gradientTransform="matrix(-0.9057 0.4157 -0.3144 -0.659 0 0)" gradientUnits="userSpaceOnUse" r="6.9209">
      <stop offset="0.6628" stop-color="#6D4C41"/>
      <stop offset="1" stop-color="#6D4C41" stop-opacity="0"/>
    </radialGradient>
    <radialGradient id="SVGID_4_" cx="-73.355198" cy="94.286649" gradientTransform="matrix(-0.0746 -0.9781 0.8311 -0.061 0 0)" gradientUnits="userSpaceOnUse" r="30.3992">
      <stop offset="0.7247" stop-color="#6D4C41" stop-opacity="0"/>
      <stop offset="1" stop-color="#6D4C41"/>
    </radialGradient>
    <radialGradient id="SVGID_5_" cx="-63.785121" cy="-59.181401" gradientTransform="matrix(0.0746 -0.9781 -0.8311 -0.061 0 0)" gradientUnits="userSpaceOnUse" r="30.3992">
      <stop offset="0.7247" stop-color="#6D4C41" stop-opacity="0"/>
      <stop offset="1" stop-color="#6D4C41"/>
    </radialGradient>
    <radialGradient id="SVGID_6_" cx="-49.5582" cy="183.92446" gradientTransform="matrix(-1 0 0 0.4818 0 0)" gradientUnits="userSpaceOnUse" r="23.419">
      <stop offset="0.7275" stop-color="#6D4C41" stop-opacity="0"/>
      <stop offset="1" stop-color="#6D4C41"/>
    </radialGradient>
    <radialGradient id="SVGID_7_" cx="60.813829" cy="-90.92513" gradientTransform="matrix(0.9057 0.4157 0.3144 -0.659 0 0)" gradientUnits="userSpaceOnUse" r="6.9209">
      <stop offset="0.6628" stop-color="#6D4C41"/>
      <stop offset="1" stop-color="#6D4C41" stop-opacity="0"/>
    </radialGradient>
    <radialGradient id="SVGID_8_" cx="74.028369" cy="84.086604" gradientTransform="matrix(0.3076 0.9333 0.706 -0.2238 0 0)" gradientUnits="userSpaceOnUse" r="35.6328">
      <stop offset="0.6985" stop-color="#6D4C41" stop-opacity="0"/>
      <stop offset="1" stop-color="#6D4C41"/>
    </radialGradient>
    <radialGradient id="SVGID_9_" cx="47.633463" cy="9.674865" gradientTransform="matrix(0.8813 0.4635 0.5603 -1.0249 0 0)" gradientUnits="userSpaceOnUse" r="9.3426">
      <stop offset="0.58" stop-color="#6D4C41"/>
      <stop offset="1" stop-color="#6D4C41" stop-opacity="0"/>
    </radialGradient>
    <radialGradient id="SVGID_10_" cx="-73.058563" cy="1.073364" gradientTransform="matrix(-0.9378 -0.3868 -0.2182 0.5183 0 0)" gradientUnits="userSpaceOnUse" r="28.7211">
      <stop offset="0.6985" stop-color="#6D4C41" stop-opacity="0"/>
      <stop offset="1" stop-color="#6D4C41"/>
    </radialGradient>
    <radialGradient id="SVGID_11_" cx="43.6479" cy="-17.105636" gradientTransform="matrix(1 0 0 -1.1998 0 0)" gradientUnits="userSpaceOnUse" r="8.5755">
      <stop offset="0.7016" stop-color="#6D4C41" stop-opacity="0"/>
      <stop offset="1" stop-color="#6D4C41"/>
    </radialGradient>
    <radialGradient id="SVGID_12_" cx="-50.37713" cy="25.417839" gradientTransform="matrix(-0.9657 -0.2549 -0.2432 0.8863 0 0)" gradientUnits="userSpaceOnUse" r="16.0834">
      <stop offset="0.6605" stop-color="#6D4C41" stop-opacity="0"/>
      <stop offset="1" stop-color="#6D4C41"/>
    </radialGradient>
    <radialGradient id="SVGID_13_" cx="45.324289" cy="-32.622226" gradientTransform="matrix(0.9907 0.1337 0.1915 -1.3654 0 0)" gradientUnits="userSpaceOnUse" r="16.8856">
      <stop offset="0.5981" stop-color="#6D4C41" stop-opacity="0"/>
      <stop offset="1" stop-color="#6D4C41"/>
    </radialGradient>
  </defs>
  <path d="M80.74,88.51 C77.89,87.97 50.12,87.97 47.27,88.51 C29.22,91.94 16,100.9 16,117.88 L16,124 L17.5,124 L19,124 L109,124 L110.5,124 L112,124 L112,117.88 C112,100.9 98.78,91.94 80.74,88.51 Z" fill="url(#SVGID_1_)"/>
  <path id="hair_3_" d="M99.02,86.36 C97.77,84.13 99.36,81.86 102.08,79.06 C106.39,74.6 111.08,64.28 106.72,53.8 C106.75,53.74 105.86,51.97 105.89,51.92 L104.1,51.83 C103.53,51.75 83.84,51.71 64.13,51.71 C44.42,51.71 24.73,51.75 24.16,51.83 C24.16,51.83 21.51,53.74 21.53,53.8 C17.18,64.29 21.86,74.61 26.17,79.06 C28.88,81.87 30.47,84.13 29.23,86.36 C28.02,88.53 24.42,88.84 24.42,88.84 C24.42,88.84 25.25,91.06 27.25,92.25 C29.1,93.35 31.38,93.61 32.95,93.65 C32.95,93.65 39.1,102 55.18,102 L64.13,102 L73.08,102 C89.16,102 95.31,93.65 95.31,93.65 C96.88,93.61 99.16,93.35 101.01,92.25 C103.01,91.06 103.84,88.84 103.84,88.84 C103.84,88.84 100.23,88.52 99.02,86.36 Z" fill="#543930"/>
  <path d="M64.11,102 L64.11,92.74 L92.68,90.52 L95.28,93.65 C95.28,93.65 89.13,102 73.05,102 L64.11,102 Z" fill="url(#SVGID_2_)"/>
  <path d="M95.22,89.61 C90.94,83.23 100.43,80.86 100.43,80.86 C100.43,80.86 100.44,80.87 100.44,80.87 C98.79,82.88 98.04,84.64 99.01,86.37 C100.22,88.54 103.82,88.85 103.82,88.85 C103.82,88.85 98.91,93.12 95.22,89.61 Z" fill="url(#SVGID_3_)"/>
  <path d="M106.74,53.79 C110.99,63.95 106.52,74.4 102.33,78.81 C101.76,79.42 99.32,81.76 98.76,83.64 C98.76,83.64 89.22,70.59 86.37,62.92 C85.8,61.37 85.27,59.78 85.2,58.13 C85.15,56.9 85.34,55.43 86.07,54.38 C86.96,53.09 106.23,52.71 106.23,52.71 C106.23,52.72 106.74,53.79 106.74,53.79 Z" fill="url(#SVGID_4_)"/>
  <path d="M21.52,53.79 C17.27,63.95 21.74,74.4 25.93,78.81 C26.51,79.42 28.94,81.76 29.5,83.64 C29.5,83.64 39.04,70.59 41.89,62.92 C42.47,61.37 42.99,59.78 43.06,58.13 C43.11,56.9 42.92,55.43 42.19,54.38 C41.3,53.09 40.26,53.44 38.75,53.44 C35.87,53.44 23.26,52.72 22.28,52.72 C22.29,52.72 21.52,53.79 21.52,53.79 Z" fill="url(#SVGID_5_)"/>
  <path d="M64.15,102 L64.15,92.74 L35.58,90.52 L32.98,93.65 C32.98,93.65 39.13,102 55.21,102 L64.15,102 Z" fill="url(#SVGID_6_)"/>
  <path d="M33.04,89.61 C37.32,83.23 27.83,80.86 27.83,80.86 C27.83,80.86 27.82,80.87 27.82,80.87 C29.47,82.88 30.22,84.64 29.25,86.37 C28.04,88.54 24.44,88.85 24.44,88.85 C24.44,88.85 29.35,93.12 33.04,89.61 Z" fill="url(#SVGID_7_)"/>
  <path d="M54.92,93.85 L54.92,103.83 C54.92,108.34 59.25,112 64,112 C68.75,112 73.08,108.34 73.08,103.83 L73.08,93.85 L54.92,93.85 Z" fill="#E59600"/>
  <path d="M91.33,58.43 L36.67,58.43 C30.78,58.43 25.96,63.57 25.96,69.84 C25.96,76.11 30.78,81.25 36.67,81.25 L91.32,81.25 C97.21,81.25 102.03,76.11 102.03,69.84 C102.04,63.57 97.22,58.43 91.33,58.43 Z" fill="#E59600"/>
  <path id="head" d="M64,19.07 L64,19.07 L64,19.07 C46.6,19.07 30.48,37.68 30.48,64.46 C30.48,91.1 47.09,104.27 64,104.27 C80.91,104.27 97.52,91.1 97.52,64.46 C97.52,37.68 81.4,19.07 64,19.07 Z" fill="#FFCA28"/>
  <path id="nose" d="M67.81,78.06 C67.7,78.02 67.6,77.99 67.49,77.98 L60.5,77.98 C60.39,77.99 60.29,78.02 60.18,78.06 C59.55,78.32 59.2,78.97 59.5,79.67 C59.8,80.37 61.19,82.33 63.99,82.33 C66.79,82.33 68.19,80.37 68.48,79.67 C68.79,78.97 68.45,78.31 67.81,78.06 Z" fill="#E59600"/>
  <path id="mouth" d="M56.67,91.77 C61.3,90.32 66.94,90.39 71.33,91.77 C72.13,92.02 72.53,91.2 71.98,90.36 C71.2,89.18 68.31,86.9 64,86.9 C59.69,86.9 56.8,89.18 56.02,90.36 C55.47,91.21 55.87,92.03 56.67,91.77 Z" fill="#795548"/>
  <path d="M43.33,68.26 C43.34,67.74 43.43,67.24 43.55,66.76 C44.52,66.63 45.56,66.43 46.7,66.09 C48.38,65.58 49.64,64.75 50.61,63.85 C51.68,64.86 52.37,66.47 52.33,68.28 C52.27,71.34 50.2,73.82 47.71,73.81 C45.23,73.81 43.27,71.32 43.33,68.26 Z" fill="#404040"/>
  <path d="M84.67,68.26 C84.66,67.74 84.57,67.24 84.45,66.76 C83.48,66.63 82.45,66.43 81.3,66.09 C79.62,65.58 78.36,64.75 77.39,63.85 C76.32,64.86 75.63,66.47 75.68,68.28 C75.75,71.34 77.81,73.82 80.3,73.81 C82.77,73.81 84.73,71.32 84.67,68.26 Z" fill="#404040"/>
  <path d="M55.29,58.42 C54.1,57.38 51.54,56.02 47.17,56.79 C42.8,57.56 40.86,59.72 40.1,61.1 C39.76,61.71 39.98,62.31 40.34,62.63 C40.68,62.93 41.55,63.11 42.4,62.66 C43.25,62.21 44.87,61.05 47.82,60.51 C50.78,60.01 52.69,60.55 53.65,60.68 C54.6,60.81 55.36,60.34 55.58,59.95 C55.81,59.52 55.81,58.88 55.29,58.42 Z" fill="#6D4C41"/>
  <path d="M87.9,61.13 C87.14,59.75 85.2,57.59 80.83,56.82 C76.46,56.05 73.9,57.41 72.71,58.45 C72.18,58.91 72.19,59.55 72.42,59.97 C72.64,60.37 73.39,60.83 74.35,60.7 C75.3,60.57 77.22,60.03 80.17,60.53 C83.12,61.07 84.73,62.24 85.59,62.68 C86.45,63.12 87.31,62.95 87.65,62.65 C88.01,62.33 88.23,61.74 87.9,61.13 Z" fill="#6D4C41"/>
  <path id="hair" d="M104.19,32.67 C101.75,29.05 96.28,24.19 91.37,23.87 C90.58,19.24 85.53,15.32 80.64,13.8 C67.41,9.69 58.8,14.3 54.17,16.77 C53.21,17.28 47,20.66 42.66,18.24 C39.94,16.72 39.99,12.61 39.99,12.61 C39.99,12.61 31.47,15.79 34.38,24.67 C31.45,24.79 27.61,26 25.58,30.03 C23.16,34.83 24.02,38.85 24.72,40.77 C22.2,42.87 19.03,47.33 21.2,53.13 C22.84,57.49 29.37,59.5 29.37,59.5 C28.91,67.35 30.4,72.19 31.19,74.15 C31.33,74.49 31.82,74.46 31.91,74.11 C32.9,70.22 36.27,56.66 35.94,54.29 C35.94,54.29 47.29,52.08 58.11,44.27 C60.31,42.68 62.7,41.32 65.24,40.33 C78.83,35.02 81.67,44.07 81.67,44.07 C81.67,44.07 91.09,42.3 93.93,55.13 C95,59.94 95.72,67.63 96.33,73.02 C96.37,73.4 96.9,73.48 97.05,73.13 C98,70.99 99.9,66.75 100.35,62.43 C100.51,60.91 104.69,58.9 106.49,52.37 C108.91,43.66 105.96,35.29 104.19,32.67 Z" fill="#543930"/>
  <path d="M100.34,62.48 C100.5,60.96 104.68,58.95 106.48,52.42 C106.67,51.73 106.83,51.02 106.98,50.31 C108.44,42.37 105.82,35.09 104.19,32.68 C101.93,29.33 97.09,24.94 92.5,24.04 C92.1,23.99 91.71,23.94 91.34,23.92 C91.34,23.92 91.67,26.02 90.8,27.71 C89.68,29.89 87.39,30.4 87.39,30.4 C99.36,42.14 98.5,51.97 100.34,62.48 Z" fill="url(#SVGID_8_)"/>
  <path d="M57.07,15.3 C55.97,15.82 55.01,16.34 54.17,16.78 C53.21,17.29 47,20.67 42.66,18.25 C39.99,16.76 39.99,12.78 39.99,12.64 C38.76,14.18 35.04,25.18 45.92,25.91 C50.61,26.23 53.5,22.22 55.22,18.82 C55.84,17.57 56.81,15.78 57.07,15.3 Z" fill="url(#SVGID_9_)"/>
  <path d="M79.28,13.41 C86.6,15.35 90.17,19.01 91.36,23.89 C91.71,25.32 92.13,38.68 66.13,23.5 C56.46,17.85 59.1,14.32 60.23,13.91 C64.65,12.34 71.07,11.23 79.28,13.41 Z" fill="url(#SVGID_10_)"/>
  <path d="M39.96,12.63 C39.95,12.64 39.93,12.64 39.9,12.65 C39.9,12.65 39.9,12.65 39.89,12.65 C38.96,13.04 31.65,16.35 34.38,24.67 L42.16,25.9 C35.28,19.05 39.99,12.61 39.99,12.61 C39.99,12.61 39.97,12.62 39.96,12.63 Z" fill="url(#SVGID_11_)"/>
  <path d="M39.19,25.44 L34.38,24.68 C34.19,24.68 33.55,24.74 33.2,24.78 C30.49,25.15 27.3,26.52 25.57,30.04 C23.71,33.82 23.76,37.08 24.27,39.24 C24.42,39.97 24.72,40.78 24.72,40.78 C24.72,40.78 27.1,38.57 32.77,38.42 L39.19,25.44 Z" fill="url(#SVGID_12_)"/>
  <path d="M24.49,40.98 C22.12,43.04 18.93,47.64 21.28,53.35 C23.05,57.65 29.37,59.52 29.37,59.52 C29.37,59.54 30.63,59.91 31.28,59.91 L32.76,38.43 C29.73,38.43 26.82,39.32 24.94,40.6 C24.97,40.64 24.48,40.95 24.49,40.98 Z" fill="url(#SVGID_13_)"/>
</svg>
